build/assets/footerFacebook.svg

<svg width="48" height="48" viewBox="0 0 48 48" fill="none" xmlns="http://www.w3.org/2000/svg">
<path fill-rule="evenodd" clip-rule="evenodd" d="M0 24C0 10.7452 10.7452 0 24 0C37.2548 0 48 10.7452 48 24C48 37.2548 37.2548 48 24 48C10.7452 48 0 37.2548 0 24ZM26.5016 38.1115V25.0542H30.1059L30.5836 20.5546H26.5016L26.5077 18.3025C26.5077 17.1289 26.6192 16.5001 28.3048 16.5001H30.5581V12H26.9532C22.6231 12 21.0991 14.1828 21.0991 17.8536V20.5551H18.4V25.0547H21.0991V38.1115H26.5016Z" fill="#B0B0B0"/>
</svg>

<svg width="48" height="48" fill="none" xmlns="http://www.w3.org/2000/svg"><path fill-rule="evenodd" clip-rule="evenodd" d="M0 24C0 10.745 10.745 0 24 0s24 10.745 24 24-10.745 24-24 24S0 37.255 0 24Zm26.502 14.111V25.054h3.604l.478-4.5h-4.082l.006-2.252c0-1.173.111-1.802 1.797-1.802h2.253V12h-3.605c-4.33 0-5.854 2.183-5.854 5.854v2.701H18.4v4.5h2.7V38.11h5.402Z" fill="#B0B0B0"/></svg>
